X:52
T:Living with the Pack
R:set dance
C: 1987, 2010 L.E. McCullough 
M:3/4
L:1/8
K:D
Be|fB df ed|eA~A2 EA|Bd fd ef|ed cA Bc|
Bd fd ef|eA~A2 EF|GB~B2 ed|1 B3A Bd:|2 B3A GF|] 
~G3B AG|~F3A (3FED|~E3B AG|Be BA GA|
~B3e dB|~A3B GA|Be ga fd|~e3f d=c|
~B3e dB|~A3B GA|Bd fd ef|ed BA GF|
~G3B AG|~F3A (3FED| ~E3B GB|~E3A FD|
~E3B GB|~e3g fd|~e3f ed|fB df ed|
eA~A2 EA|Bd fd ef|ed cA Bc|Bd fd ef|
eA~A2 EF|GB~B2 ed|~B3G EF|GB~B2 ed|
~B3G EF|GB~B2 EF|GB~B2 EF|GB eg fd|e3d Bd|]

